X: 1
T: ONE BOTTLE MORE -- JIG
B: Ryan's Mammoth Collection of Fiddle Tunes
R: jig
M: 6/8
L: 1/8
Z: Contributed 20010525152946 by John Chambers jc:trillian.mit.edu
K: Ador
uG \
| EGG ABc | edc BcA | BGG dGG | BGd BAG \
| EGG ABc | def a2e | edc Bcd | ecA A2 :|
|: ua \
| gef g2a | gef g3  | BGG dGG | Bcd BAG \
| EAA ABc | def a2e | edc Bcd | ecA A2 :|
